X: 1
T: Lynch's
M: 4/4
L: 1/8
R: barndance
K: Dmaj
|: FE |\
D2 d2 D2 d2 | BdcB A3 F | GFGB AFDF | E2 e2 cAGE |
D2 d2 D2 d2 | BdcB A3 F | GFGB AFDF |1 EGFE D2 :|
|: ag |\
f2 df e2 Bc | d2 fB A3 F | GAce gecB | A2 b2 a3 g |
f2 df e2 Bc | d2 fB A3 F | GAce geBc |e2 d2 d2 :|
